icons/metabase-dark.svg

<svg width="256" height="256" viewBox="0 0 256 256" fill="none" xmlns="http://www.w3.org/2000/svg">
<path d="M196 0H60C26.8629 0 0 26.8629 0 60V196C0 229.137 26.8629 256 60 256H196C229.137 256 256 229.137 256 196V60C256 26.8629 229.137 0 196 0Z" fill="#282828"/>
<path d="M54.2575 90.6076C61.5795 90.6076 67.5151 85.0449 67.5151 78.1831C67.5151 71.3211 61.5795 65.7585 54.2575 65.7585C46.9356 65.7585 41 71.3211 41 78.1831C41 85.0449 46.9356 90.6076 54.2575 90.6076Z" fill="#509EE3"/>
<path d="M54.2575 125.396C61.5795 125.396 67.5151 119.834 67.5151 112.972C67.5151 106.11 61.5795 100.547 54.2575 100.547C46.9356 100.547 41 106.11 41 112.972C41 119.834 46.9356 125.396 54.2575 125.396Z" fill="#509EE3"/>
<path opacity="0.2" d="M91.3791 90.6076C98.701 90.6076 104.637 85.0449 104.637 78.1831C104.637 71.3211 98.701 65.7585 91.3791 65.7585C84.0572 65.7585 78.1216 71.3211 78.1216 78.1831C78.1216 85.0449 84.0572 90.6076 91.3791 90.6076Z" fill="#509EE3"/>
<path d="M91.3791 125.733C98.701 125.733 104.637 120.171 104.637 113.309C104.637 106.448 98.701 100.885 91.3791 100.885C84.0572 100.885 78.1216 106.448 78.1216 113.309C78.1216 120.171 84.0572 125.733 91.3791 125.733Z" fill="#509EE3"/>
<path opacity="0.2" d="M128.5 90.6076C135.821 90.6076 141.757 85.0449 141.757 78.1831C141.757 71.3211 135.821 65.7585 128.5 65.7585C121.178 65.7585 115.243 71.3211 115.243 78.1831C115.243 85.0449 121.178 90.6076 128.5 90.6076Z" fill="#509EE3"/>
<path opacity="0.2" d="M128.5 50.8491C135.821 50.8491 141.757 45.2864 141.757 38.4245C141.757 31.5627 135.821 26 128.5 26C121.178 26 115.243 31.5627 115.243 38.4245C115.243 45.2864 121.178 50.8491 128.5 50.8491Z" fill="#509EE3"/>
<path opacity="0.2" d="M128.5 125.733C135.821 125.733 141.757 120.171 141.757 113.309C141.757 106.448 135.821 100.885 128.5 100.885C121.178 100.885 115.243 106.448 115.243 113.309C115.243 120.171 121.178 125.733 128.5 125.733Z" fill="#509EE3"/>
<path opacity="0.2" d="M165.62 90.6076C172.942 90.6076 178.877 85.0449 178.877 78.1831C178.877 71.3211 172.942 65.7585 165.62 65.7585C158.299 65.7585 152.363 71.3211 152.363 78.1831C152.363 85.0449 158.299 90.6076 165.62 90.6076Z" fill="#509EE3"/>
<path d="M202.742 90.6076C210.064 90.6076 216 85.0449 216 78.1831C216 71.3211 210.064 65.7585 202.742 65.7585C195.42 65.7585 189.484 71.3211 189.484 78.1831C189.484 85.0449 195.42 90.6076 202.742 90.6076Z" fill="#509EE3"/>
<path d="M165.62 125.733C172.942 125.733 178.877 120.171 178.877 113.309C178.877 106.448 172.942 100.885 165.62 100.885C158.299 100.885 152.363 106.448 152.363 113.309C152.363 120.171 158.299 125.733 165.62 125.733Z" fill="#509EE3"/>
<path d="M202.742 125.733C210.064 125.733 216 120.171 216 113.309C216 106.448 210.064 100.885 202.742 100.885C195.42 100.885 189.484 106.448 189.484 113.309C189.484 120.171 195.42 125.733 202.742 125.733Z" fill="#509EE3"/>
<path d="M54.2575 160.184C61.5795 160.184 67.5151 154.622 67.5151 147.76C67.5151 140.899 61.5795 135.336 54.2575 135.336C46.9356 135.336 41 140.899 41 147.76C41 154.622 46.9356 160.184 54.2575 160.184Z" fill="#509EE3"/>
<path opacity="0.2" d="M91.3791 160.522C98.701 160.522 104.637 154.96 104.637 148.098C104.637 141.237 98.701 135.674 91.3791 135.674C84.0572 135.674 78.1216 141.237 78.1216 148.098C78.1216 154.96 84.0572 160.522 91.3791 160.522Z" fill="#509EE3"/>
<path d="M128.5 160.522C135.821 160.522 141.757 154.96 141.757 148.098C141.757 141.237 135.821 135.674 128.5 135.674C121.178 135.674 115.243 141.237 115.243 148.098C115.243 154.96 121.178 160.522 128.5 160.522Z" fill="#509EE3"/>
<path opacity="0.2" d="M165.62 160.522C172.942 160.522 178.877 154.96 178.877 148.098C178.877 141.237 172.942 135.674 165.62 135.674C158.299 135.674 152.363 141.237 152.363 148.098C152.363 154.96 158.299 160.522 165.62 160.522Z" fill="#509EE3"/>
<path d="M202.742 160.522C210.064 160.522 216 154.96 216 148.098C216 141.237 210.064 135.674 202.742 135.674C195.42 135.674 189.484 141.237 189.484 148.098C189.484 154.96 195.42 160.522 202.742 160.522Z" fill="#509EE3"/>
<path d="M54.2575 194.973C61.5795 194.973 67.5151 189.411 67.5151 182.549C67.5151 175.688 61.5795 170.125 54.2575 170.125C46.9356 170.125 41 175.688 41 182.549C41 189.411 46.9356 194.973 54.2575 194.973Z" fill="#509EE3"/>
<path opacity="0.2" d="M91.3791 195.312C98.701 195.312 104.637 189.749 104.637 182.886C104.637 176.025 98.701 170.462 91.3791 170.462C84.0572 170.462 78.1216 176.025 78.1216 182.886C78.1216 189.749 84.0572 195.312 91.3791 195.312Z" fill="#509EE3"/>
<path opacity="0.2" d="M128.5 195.312C135.821 195.312 141.757 189.749 141.757 182.886C141.757 176.025 135.821 170.462 128.5 170.462C121.178 170.462 115.243 176.025 115.243 182.886C115.243 189.749 121.178 195.312 128.5 195.312Z" fill="#509EE3"/>
<path opacity="0.2" d="M128.5 230.1C135.821 230.1 141.757 224.537 141.757 217.675C141.757 210.814 135.821 205.251 128.5 205.251C121.178 205.251 115.243 210.814 115.243 217.675C115.243 224.537 121.178 230.1 128.5 230.1Z" fill="#509EE3"/>
<path opacity="0.2" d="M165.62 195.312C172.942 195.312 178.877 189.749 178.877 182.886C178.877 176.025 172.942 170.462 165.62 170.462C158.299 170.462 152.363 176.025 152.363 182.886C152.363 189.749 158.299 195.312 165.62 195.312Z" fill="#509EE3"/>
<path d="M202.742 195.312C210.064 195.312 216 189.749 216 182.886C216 176.025 210.064 170.462 202.742 170.462C195.42 170.462 189.484 176.025 189.484 182.886C189.484 189.749 195.42 195.312 202.742 195.312Z" fill="#509EE3"/>
</svg>

<svg xmlns="http://www.w3.org/2000/svg" width="256" height="256" fill="none"><path fill="#282828" d="M196 0H60C26.863 0 0 26.863 0 60v136c0 33.137 26.863 60 60 60h136c33.137 0 60-26.863 60-60V60c0-33.137-26.863-60-60-60"/><path fill="#509EE3" d="M54.258 90.608c7.322 0 13.257-5.563 13.257-12.425S61.58 65.758 54.258 65.758 41 71.322 41 78.184s5.936 12.425 13.258 12.425m0 34.787c7.322 0 13.257-5.562 13.257-12.424s-5.935-12.425-13.257-12.425S41 106.11 41 112.972s5.936 12.424 13.258 12.424"/><path fill="#509EE3" d="M91.38 90.608c7.321 0 13.257-5.563 13.257-12.425s-5.936-12.425-13.258-12.425-13.257 5.563-13.257 12.425 5.935 12.425 13.257 12.425" opacity=".2"/><path fill="#509EE3" d="M91.38 125.733c7.321 0 13.257-5.562 13.257-12.424s-5.936-12.424-13.258-12.424-13.257 5.563-13.257 12.424c0 6.862 5.935 12.424 13.257 12.424"/><path fill="#509EE3" d="M128.5 90.608c7.321 0 13.257-5.563 13.257-12.425s-5.936-12.425-13.257-12.425c-7.322 0-13.257 5.563-13.257 12.425s5.935 12.425 13.257 12.425m0-39.758c7.321 0 13.257-5.564 13.257-12.425S135.821 26 128.5 26c-7.322 0-13.257 5.563-13.257 12.425 0 6.861 5.935 12.424 13.257 12.424m0 74.884c7.321 0 13.257-5.562 13.257-12.424s-5.936-12.424-13.257-12.424c-7.322 0-13.257 5.563-13.257 12.424 0 6.862 5.935 12.424 13.257 12.424m37.12-35.125c7.322 0 13.257-5.563 13.257-12.425s-5.935-12.425-13.257-12.425c-7.321 0-13.257 5.563-13.257 12.425s5.936 12.425 13.257 12.425" opacity=".2"/><path fill="#509EE3" d="M202.742 90.608c7.322 0 13.258-5.563 13.258-12.425s-5.936-12.425-13.258-12.425-13.258 5.563-13.258 12.425 5.936 12.425 13.258 12.425m-37.122 35.125c7.322 0 13.257-5.562 13.257-12.424s-5.935-12.424-13.257-12.424c-7.321 0-13.257 5.563-13.257 12.424 0 6.862 5.936 12.424 13.257 12.424m37.122 0c7.322 0 13.258-5.562 13.258-12.424s-5.936-12.424-13.258-12.424-13.258 5.563-13.258 12.424c0 6.862 5.936 12.424 13.258 12.424M54.258 160.184c7.322 0 13.257-5.562 13.257-12.424s-5.935-12.424-13.257-12.424S41 140.899 41 147.76c0 6.862 5.936 12.424 13.258 12.424"/><path fill="#509EE3" d="M91.38 160.522c7.321 0 13.257-5.562 13.257-12.424s-5.936-12.424-13.258-12.424-13.257 5.563-13.257 12.424c0 6.862 5.935 12.424 13.257 12.424" opacity=".2"/><path fill="#509EE3" d="M128.5 160.522c7.321 0 13.257-5.562 13.257-12.424s-5.936-12.424-13.257-12.424c-7.322 0-13.257 5.563-13.257 12.424 0 6.862 5.935 12.424 13.257 12.424"/><path fill="#509EE3" d="M165.62 160.522c7.322 0 13.257-5.562 13.257-12.424s-5.935-12.424-13.257-12.424c-7.321 0-13.257 5.563-13.257 12.424 0 6.862 5.936 12.424 13.257 12.424" opacity=".2"/><path fill="#509EE3" d="M202.742 160.522c7.322 0 13.258-5.562 13.258-12.424s-5.936-12.424-13.258-12.424-13.258 5.563-13.258 12.424c0 6.862 5.936 12.424 13.258 12.424M54.258 194.973c7.322 0 13.257-5.562 13.257-12.424s-5.935-12.424-13.257-12.424S41 175.688 41 182.549c0 6.862 5.936 12.424 13.258 12.424"/><path fill="#509EE3" d="M91.38 195.312c7.321 0 13.257-5.563 13.257-12.426 0-6.861-5.936-12.424-13.258-12.424s-13.257 5.563-13.257 12.424c0 6.863 5.935 12.426 13.257 12.426m37.121 0c7.321 0 13.257-5.563 13.257-12.426 0-6.861-5.936-12.424-13.257-12.424-7.322 0-13.257 5.563-13.257 12.424 0 6.863 5.935 12.426 13.257 12.426m0 34.788c7.321 0 13.257-5.563 13.257-12.425 0-6.861-5.936-12.424-13.257-12.424-7.322 0-13.257 5.563-13.257 12.424 0 6.862 5.935 12.425 13.257 12.425m37.12-34.788c7.322 0 13.257-5.563 13.257-12.426 0-6.861-5.935-12.424-13.257-12.424-7.321 0-13.257 5.563-13.257 12.424 0 6.863 5.936 12.426 13.257 12.426" opacity=".2"/><path fill="#509EE3" d="M202.742 195.312c7.322 0 13.258-5.563 13.258-12.426 0-6.861-5.936-12.424-13.258-12.424s-13.258 5.563-13.258 12.424c0 6.863 5.936 12.426 13.258 12.426"/></svg>
